icons/mobile/24/svg/local-network-slash-24.svg

<!-- This Source Code Form is subject to the terms of the Mozilla Public
   - License, v. 2.0. If a copy of the MPL was not distributed with this
   - file, You can obtain one at http://mozilla.org/MPL/2.0/. -->
<svg width="24" height="24" viewBox="0 0 24 24" fill="none" xmlns="http://www.w3.org/2000/svg">
    <path d="M9.5 16.25H7.25V14H9.5V16.25Z" fill="black" />
    <path fill-rule="evenodd" clip-rule="evenodd" d="M10.7373 10.5H10.7451L12.4951 12.25H12.4873L14.2373 14H14.25V14.0117L18.9873 18.75H18.9951L20.5215 20.2773L20.5166 20.2783L22 21.7627L21.3809 22.3809L20.7627 23L18.2627 20.5H5.5C4.121 20.5 3 19.379 3 18V13C3 11.621 4.121 10.5 5.5 10.5H8.2627L2 4.23828L3.23828 3L10.7373 10.5ZM5.5 12.25C5.087 12.25 4.75 12.587 4.75 13V18C4.75 18.413 5.087 18.75 5.5 18.75H16.5127L14.0127 16.25H12V14.2373L10.0127 12.25H5.5Z" fill="black" />
    <path d="M19 10.5H19.5C20.879 10.5 22 11.621 22 13V18C22 18.467 21.8627 18.8994 21.6387 19.2744L20.25 17.8838V13C20.25 12.587 19.913 12.25 19.5 12.25H14.6162L12.8662 10.5H17.25V5H19V10.5Z" fill="black" />
    <path d="M9.11621 6.5C10.0631 6.50004 10.9401 6.79594 11.6641 7.2959L10.6631 8.29688L8.88379 6.51758C8.96179 6.51358 9.03721 6.5 9.11621 6.5Z" fill="black" />
    <path d="M9.11621 3C11.0381 3.00005 12.8075 3.64855 14.2324 4.72852L12.9844 5.97656C11.8874 5.2056 10.5551 4.75004 9.11621 4.75C8.50828 4.75 7.92615 4.84803 7.36621 5L5.97949 3.61328C6.9504 3.22236 8.00633 3 9.11621 3Z" fill="black" />
</svg>

<!-- This Source Code Form is subject to the terms of the Mozilla Public
   - License, v. 2.0. If a copy of the MPL was not distributed with this
   - file, You can obtain one at http://mozilla.org/MPL/2.0/. -->
<svg xmlns="http://www.w3.org/2000/svg" width="24" height="24" fill="none" viewBox="0 0 24 24">
    <path fill="#000" d="M9.5 16.25H7.25V14H9.5z" />
    <path fill="#000" fill-rule="evenodd" d="M10.737 10.5h.008l1.75 1.75h-.008l1.75 1.75h.013v.012l4.737 4.738h.008l1.526 1.527-.004.001L22 21.763l-.62.618-.617.619-2.5-2.5H5.5A2.5 2.5 0 0 1 3 18v-5c0-1.379 1.121-2.5 2.5-2.5h2.763L2 4.238 3.238 3zM5.5 12.25a.75.75 0 0 0-.75.75v5c0 .413.337.75.75.75h11.013l-2.5-2.5H12v-2.013l-1.987-1.987z" clip-rule="evenodd" />
    <path fill="#000" d="M19 10.5h.5c1.379 0 2.5 1.121 2.5 2.5v5c0 .467-.137.9-.361 1.274l-1.389-1.39V13a.75.75 0 0 0-.75-.75h-4.884l-1.75-1.75h4.384V5H19zM9.116 6.5a4.47 4.47 0 0 1 2.548.796l-1 1-1.78-1.778c.078-.004.153-.018.232-.018M9.116 3c1.922 0 3.691.649 5.116 1.729l-1.248 1.248A6.7 6.7 0 0 0 9.116 4.75c-.608 0-1.19.098-1.75.25L5.98 3.613A8.4 8.4 0 0 1 9.116 3" />
</svg>
